X: 10873
M: 6/8
L: 1/8
K: Bb
c2c Tc2d | c2c c2f | {f}=e>dc c>de | f>ga c>BA/B/ |\
{d}c2c c2d | c2c c2f | (dga) b(d=e) | f(ag) f(cd) |


